svgs/light/pinball.svg

<svg xmlns="http://www.w3.org/2000/svg" viewBox="0 0 448 512"><!--! Font Awesome Pro 6.3.0 by @fontawesome - https://fontawesome.com License - https://fontawesome.com/license (Commercial License) Copyright 2023 Fonticons, Inc. --><path d="M145.4 211.6C137.5 205.3 128.1 200 118.1 196.6c-9.295-3.139-18.73-4.632-28.01-4.632c-37.92 0-73.19 24.92-85.62 64.17c-15.46 48.85 10.35 101.4 57.64 117.4l310.3 104.8c3.35 1.123 6.824 1.677 10.29 1.677c9.92 0 19.75-4.542 26.3-13.24c11.27-14.98 8.65-36.56-5.85-48.2L145.4 211.6zM382.7 448l-310.3-104.8C41.54 332.8 24.78 298.1 34.99 265.8C42.91 240.8 65.06 223.1 90.1 223.1c5.996 0 11.98 .9922 17.77 2.949c6.168 2.084 12.25 5.436 17.5 9.615l257.7 206.9C384.1 444.3 384.4 446.3 382.7 448zM96.17 263.8c-13.25 0-23.1 10.74-23.1 23.1c0 13.26 10.74 24 23.1 24c13.26 0 24-10.74 24-24C120.2 274.6 109.4 263.8 96.17 263.8zM352 32c-53.02 0-96 42.98-96 96s42.98 96 96 96s96-42.98 96-96S405 32 352 32zM352 192c-35.29 0-64-28.71-64-64s28.71-64 64-64s64 28.71 64 64S387.3 192 352 192z"/></svg>

<svg xmlns="http://www.w3.org/2000/svg" viewBox="0 0 448 512"><!-- Font Awesome Pro 6.0.0-alpha2 by @fontawesome - https://fontawesome.com License - https://fontawesome.com/license (Commercial License) --><path d="M145.404 211.609C137.492 205.309 128.148 200.021 118.109 196.631C108.814 193.492 99.375 191.998 90.099 191.998C52.181 191.998 16.906 216.92 4.484 256.172C-10.977 305.023 14.83 357.574 62.123 373.543L372.416 478.322C375.765 479.445 379.24 479.998 382.703 479.998C392.623 479.998 402.453 475.457 409.002 466.754C420.269 451.775 417.652 430.195 403.152 418.555L145.404 211.609ZM382.654 448.004L72.361 343.225C41.543 332.818 24.779 298.098 34.994 265.826C42.91 240.809 65.056 223.998 90.099 223.998C96.095 223.998 102.076 224.99 107.869 226.947C114.037 229.031 120.121 232.383 125.371 236.563L383.119 443.508C384.052 444.258 384.379 446.254 382.654 448.004ZM96.166 263.834C82.912 263.834 72.168 274.578 72.168 287.832C72.168 301.088 82.912 311.832 96.166 311.832C109.422 311.832 120.166 301.088 120.166 287.832C120.166 274.578 109.422 263.834 96.166 263.834ZM352 32C298.98 32 256 74.98 256 128S298.98 224 352 224S448 181.02 448 128S405.019 32 352 32ZM352 192C316.711 192 288 163.289 288 128S316.711 64 352 64S416 92.711 416 128S387.289 192 352 192Z"/></svg>
